X: 53
T: Maozhuxi laiguo wuzhishan
%%abc-version 2.0
%%abcx-abcm2ps-target-version 5.9.1 (29 Sep 2008)
%%abc-creator hum2abc beta
%%abcx-conversion-date 2013/10/02 07:44:27
%%abc-edited-by Helmut Schaffrath
%%humdrum-veritas 3246041310
%%humdrum-veritas-data 1001960472
%%continueall 1
%%barnumbers 0
L: 1/8
M: 2/4
K: C
A2G2 [I:setbarnb 1]| 
c< d-d2 | 
A c d c/ d/ | 
e< d-d2 | 
c AA2 | 
d< c-c2 | 
c2G2 | 
A< G-G2 | 
c c/ d/ c d- | 
d4 | 
e c d/ e/ d- | 
d3c/ A/ | 
c/> d/ d/ c/A2 | 
G4 | 
d cA2 | 
A< G-G2 |]  



